static/img/covid-shield-logo.svg

<svg width="260" height="43" viewBox="0 0 260 43" fill="none" xmlns="http://www.w3.org/2000/svg">
<path d="M68.4776 34.288C66.3016 34.288 64.3923 33.8186 62.7496 32.88C61.1283 31.9413 59.8803 30.5973 59.0056 28.848C58.1309 27.0986 57.6936 25.0506 57.6936 22.704C57.6936 20.3573 58.1309 18.32 59.0056 16.592C59.8803 14.8426 61.1283 13.4986 62.7496 12.56C64.3923 11.6213 66.3016 11.152 68.4776 11.152C69.8856 11.152 71.2083 11.3653 72.4456 11.792C73.6829 12.1973 74.7816 12.7946 75.7416 13.584C76.0189 13.7973 76.2109 14.0213 76.3176 14.256C76.4243 14.4906 76.4776 14.7786 76.4776 15.12C76.4776 15.5893 76.3496 15.984 76.0936 16.304C75.8376 16.624 75.5283 16.784 75.1656 16.784C74.7389 16.784 74.3016 16.6346 73.8536 16.336C72.9363 15.6533 72.0829 15.184 71.2936 14.928C70.5043 14.6506 69.6296 14.512 68.6696 14.512C66.4509 14.512 64.7656 15.2053 63.6136 16.592C62.4829 17.9786 61.9176 20.016 61.9176 22.704C61.9176 25.4133 62.4829 27.4613 63.6136 28.848C64.7656 30.2346 66.4509 30.928 68.6696 30.928C69.5869 30.928 70.4296 30.7893 71.1976 30.512C71.9869 30.2346 72.8723 29.7653 73.8536 29.104C74.0669 28.976 74.2803 28.8693 74.4936 28.784C74.7069 28.6986 74.9309 28.656 75.1656 28.656C75.5283 28.656 75.8376 28.816 76.0936 29.136C76.3496 29.456 76.4776 29.8506 76.4776 30.32C76.4776 30.64 76.4243 30.928 76.3176 31.184C76.2109 31.4186 76.0189 31.6426 75.7416 31.856C74.7816 32.6453 73.6829 33.2533 72.4456 33.68C71.2083 34.0853 69.8856 34.288 68.4776 34.288Z" fill="#002D42"/>
<path d="M89.7269 34.288C87.5295 34.288 85.6202 33.8186 83.9989 32.88C82.3989 31.9413 81.1615 30.5973 80.2869 28.848C79.4122 27.0986 78.9749 25.0506 78.9749 22.704C78.9749 20.3573 79.4015 18.32 80.2549 16.592C81.1295 14.8426 82.3775 13.4986 83.9989 12.56C85.6202 11.6213 87.5295 11.152 89.7269 11.152C91.9242 11.152 93.8229 11.6213 95.4229 12.56C97.0442 13.4986 98.2815 14.8426 99.1349 16.592C100.01 18.32 100.447 20.3573 100.447 22.704C100.447 25.0506 100.01 27.0986 99.1349 28.848C98.2602 30.5973 97.0122 31.9413 95.3909 32.88C93.7909 33.8186 91.9029 34.288 89.7269 34.288ZM89.7269 30.992C91.7962 30.992 93.4069 30.2773 94.5589 28.848C95.7322 27.4186 96.3189 25.3706 96.3189 22.704C96.3189 20.0373 95.7322 18 94.5589 16.592C93.4069 15.1626 91.7962 14.448 89.7269 14.448C87.6362 14.448 86.0042 15.1626 84.8309 16.592C83.6789 18 83.1029 20.0373 83.1029 22.704C83.1029 25.3706 83.6789 27.4186 84.8309 28.848C86.0042 30.2773 87.6362 30.992 89.7269 30.992Z" fill="#002D42"/>
<path d="M121.032 12.336C121.374 11.6106 121.939 11.248 122.728 11.248C123.262 11.248 123.742 11.4186 124.168 11.76C124.595 12.1013 124.808 12.528 124.808 13.04C124.808 13.2746 124.744 13.5413 124.616 13.84L115.752 32.912C115.56 33.3173 115.262 33.6373 114.856 33.872C114.472 34.0853 114.056 34.192 113.608 34.192C113.16 34.192 112.734 34.0853 112.328 33.872C111.944 33.6373 111.656 33.3173 111.464 32.912L102.632 13.84C102.504 13.5413 102.44 13.2853 102.44 13.072C102.44 12.5386 102.654 12.1013 103.08 11.76C103.528 11.4186 104.03 11.248 104.584 11.248C104.947 11.248 105.278 11.344 105.576 11.536C105.896 11.7066 106.142 11.9733 106.312 12.336L113.672 28.688L121.032 12.336Z" fill="#002D42"/>
<path d="M130.108 34.192C129.489 34.192 128.988 34 128.604 33.616C128.241 33.232 128.06 32.7306 128.06 32.112V13.328C128.06 12.7093 128.241 12.2186 128.604 11.856C128.988 11.472 129.489 11.28 130.108 11.28C130.748 11.28 131.249 11.472 131.612 11.856C131.996 12.2186 132.188 12.7093 132.188 13.328V32.112C132.188 32.7306 131.996 33.232 131.612 33.616C131.249 34 130.748 34.192 130.108 34.192Z" fill="#002D42"/>
<path d="M140.044 34C139.425 34 138.935 33.8293 138.572 33.488C138.231 33.1466 138.06 32.6666 138.06 32.048V13.392C138.06 12.7733 138.231 12.2933 138.572 11.952C138.935 11.6106 139.425 11.44 140.044 11.44H146.38C150.071 11.44 152.929 12.432 154.956 14.416C157.004 16.3786 158.028 19.1413 158.028 22.704C158.028 26.288 157.004 29.072 154.956 31.056C152.929 33.0186 150.071 34 146.38 34H140.044ZM146.124 30.64C151.308 30.64 153.9 27.9946 153.9 22.704C153.9 17.4346 151.308 14.8 146.124 14.8H142.188V30.64H146.124Z" fill="#002D42"/>
<path d="M178.681 34.288C177.038 34.288 175.481 34.0746 174.009 33.648C172.558 33.2 171.374 32.6026 170.457 31.856C169.966 31.4933 169.721 30.9813 169.721 30.32C169.721 29.872 169.849 29.488 170.105 29.168C170.382 28.8266 170.702 28.656 171.065 28.656C171.449 28.656 171.886 28.8053 172.377 29.104C173.294 29.7653 174.254 30.2453 175.257 30.544C176.259 30.8426 177.369 30.992 178.585 30.992C180.142 30.992 181.337 30.7253 182.169 30.192C183.001 29.6373 183.417 28.8373 183.417 27.792C183.417 26.9813 183.022 26.3626 182.233 25.936C181.465 25.488 180.174 25.0613 178.361 24.656C176.483 24.2506 174.958 23.7813 173.785 23.248C172.611 22.7146 171.726 22.032 171.129 21.2C170.531 20.368 170.233 19.312 170.233 18.032C170.233 16.7093 170.606 15.5253 171.353 14.48C172.099 13.4346 173.134 12.624 174.457 12.048C175.801 11.4506 177.305 11.152 178.969 11.152C182.019 11.152 184.505 11.9626 186.425 13.584C186.702 13.8186 186.894 14.0533 187.001 14.288C187.129 14.5013 187.193 14.7786 187.193 15.12C187.193 15.568 187.054 15.9626 186.777 16.304C186.521 16.624 186.211 16.784 185.849 16.784C185.635 16.784 185.433 16.752 185.241 16.688C185.07 16.624 184.835 16.5066 184.537 16.336C183.662 15.696 182.809 15.2266 181.977 14.928C181.166 14.608 180.163 14.448 178.969 14.448C177.518 14.448 176.366 14.7466 175.513 15.344C174.681 15.92 174.265 16.7306 174.265 17.776C174.265 18.6506 174.638 19.3226 175.385 19.792C176.131 20.2613 177.401 20.6986 179.193 21.104C181.091 21.5306 182.627 22.0106 183.801 22.544C184.995 23.056 185.902 23.7173 186.521 24.528C187.161 25.3386 187.481 26.352 187.481 27.568C187.481 28.8906 187.107 30.064 186.361 31.088C185.635 32.0906 184.601 32.88 183.257 33.456C181.934 34.0106 180.409 34.288 178.681 34.288Z" fill="#002D42"/>
<path d="M200.079 17.968C203.748 17.968 205.583 20.112 205.583 24.4V32.272C205.583 32.8693 205.402 33.3386 205.039 33.68C204.698 34.0213 204.218 34.192 203.599 34.192C202.98 34.192 202.49 34.0213 202.127 33.68C201.764 33.3386 201.583 32.8693 201.583 32.272V24.4C201.583 23.2693 201.348 22.448 200.879 21.936C200.431 21.4026 199.716 21.136 198.735 21.136C197.583 21.136 196.655 21.4986 195.951 22.224C195.268 22.9493 194.927 23.92 194.927 25.136V32.272C194.927 32.8693 194.746 33.3386 194.383 33.68C194.02 34.0213 193.53 34.192 192.911 34.192C192.292 34.192 191.802 34.0213 191.439 33.68C191.098 33.3386 190.927 32.8693 190.927 32.272V13.136C190.927 12.5813 191.108 12.1333 191.471 11.792C191.855 11.4506 192.346 11.28 192.943 11.28C193.54 11.28 194.02 11.44 194.383 11.76C194.746 12.08 194.927 12.5173 194.927 13.072V20.528C195.46 19.696 196.164 19.0666 197.039 18.64C197.935 18.192 198.948 17.968 200.079 17.968Z" fill="#002D42"/>
<path d="M211.63 34.192C211.054 34.192 210.574 34.032 210.19 33.712C209.827 33.3706 209.646 32.8906 209.646 32.272V19.92C209.646 19.3013 209.827 18.832 210.19 18.512C210.574 18.192 211.054 18.032 211.63 18.032C212.206 18.032 212.686 18.192 213.07 18.512C213.454 18.832 213.646 19.3013 213.646 19.92V32.272C213.646 32.8906 213.454 33.3706 213.07 33.712C212.686 34.032 212.206 34.192 211.63 34.192ZM211.63 15.184C210.904 15.184 210.328 14.992 209.902 14.608C209.475 14.2026 209.262 13.68 209.262 13.04C209.262 12.4 209.475 11.888 209.902 11.504C210.328 11.12 210.904 10.928 211.63 10.928C212.334 10.928 212.899 11.12 213.326 11.504C213.774 11.888 213.998 12.4 213.998 13.04C213.998 13.68 213.784 14.2026 213.358 14.608C212.931 14.992 212.355 15.184 211.63 15.184Z" fill="#002D42"/>
<path d="M230.155 29.712C230.517 29.712 230.805 29.8506 231.019 30.128C231.253 30.4053 231.371 30.7786 231.371 31.248C231.371 31.9093 230.976 32.464 230.187 32.912C229.461 33.3173 228.64 33.648 227.723 33.904C226.805 34.1386 225.931 34.256 225.099 34.256C222.581 34.256 220.587 33.5306 219.115 32.08C217.643 30.6293 216.907 28.6453 216.907 26.128C216.907 24.528 217.227 23.1093 217.867 21.872C218.507 20.6346 219.403 19.6746 220.555 18.992C221.728 18.3093 223.051 17.968 224.523 17.968C225.931 17.968 227.157 18.2773 228.203 18.896C229.248 19.5146 230.059 20.3893 230.635 21.52C231.211 22.6506 231.499 23.984 231.499 25.52C231.499 26.4373 231.093 26.896 230.283 26.896H220.843C220.971 28.368 221.387 29.456 222.091 30.16C222.795 30.8426 223.819 31.184 225.163 31.184C225.845 31.184 226.443 31.0986 226.955 30.928C227.488 30.7573 228.085 30.5226 228.747 30.224C229.387 29.8826 229.856 29.712 230.155 29.712ZM224.619 20.784C223.531 20.784 222.656 21.1253 221.995 21.808C221.355 22.4906 220.971 23.472 220.843 24.752H228.075C228.032 23.4506 227.712 22.4693 227.115 21.808C226.517 21.1253 225.685 20.784 224.619 20.784Z" fill="#002D42"/>
<path d="M236.755 34.192C236.179 34.192 235.699 34.032 235.315 33.712C234.952 33.3706 234.771 32.8906 234.771 32.272V13.168C234.771 12.5493 234.952 12.08 235.315 11.76C235.699 11.44 236.179 11.28 236.755 11.28C237.331 11.28 237.811 11.44 238.195 11.76C238.579 12.08 238.771 12.5493 238.771 13.168V32.272C238.771 32.8906 238.579 33.3706 238.195 33.712C237.811 34.032 237.331 34.192 236.755 34.192Z" fill="#002D42"/>
<path d="M255.952 11.28C256.549 11.28 257.04 11.4506 257.424 11.792C257.808 12.1333 258 12.5813 258 13.136V32.272C258 32.848 257.818 33.3066 257.456 33.648C257.093 33.9893 256.613 34.16 256.016 34.16C255.418 34.16 254.938 33.9893 254.576 33.648C254.213 33.3066 254.032 32.848 254.032 32.272V31.472C253.562 32.3466 252.88 33.0293 251.984 33.52C251.109 34.0106 250.106 34.256 248.976 34.256C247.632 34.256 246.426 33.9146 245.36 33.232C244.314 32.5493 243.493 31.5893 242.896 30.352C242.32 29.0933 242.032 27.6533 242.032 26.032C242.032 24.4106 242.32 22.992 242.896 21.776C243.493 20.56 244.314 19.6213 245.36 18.96C246.405 18.2986 247.61 17.968 248.976 17.968C250.106 17.968 251.109 18.2026 251.984 18.672C252.858 19.1413 253.53 19.8026 254 20.656V13.072C254 12.5386 254.17 12.112 254.512 11.792C254.874 11.4506 255.354 11.28 255.952 11.28ZM250.032 31.152C251.312 31.152 252.293 30.7146 252.976 29.84C253.68 28.9653 254.032 27.7173 254.032 26.096C254.032 24.4746 253.68 23.2373 252.976 22.384C252.293 21.5093 251.322 21.072 250.064 21.072C248.784 21.072 247.792 21.4986 247.088 22.352C246.384 23.2053 246.032 24.432 246.032 26.032C246.032 27.6533 246.384 28.912 247.088 29.808C247.792 30.704 248.773 31.152 250.032 31.152Z" fill="#002D42"/>
<path d="M23 4L7 8V20C7 32 23 40 23 40C23 40 39 32 39 20V8L23 4Z" fill="#15A3A6"/>
<path fill-rule="evenodd" clip-rule="evenodd" d="M17 20C17 16.6863 19.6863 14 23 14C25.1846 14 27.0964 15.1675 28.1457 16.9126L31.5762 14.8543C29.8274 11.9458 26.6409 10 23 10C17.4772 10 13 14.4772 13 20C13 25.5228 17.4772 30 23 30C26.6409 30 29.8274 28.0542 31.5762 25.1457L28.1457 23.0874C27.0964 24.8325 25.1846 26 23 26C19.6863 26 17 23.3137 17 20Z" fill="white"/>
</svg>

<svg width="260" height="43" fill="none" xmlns="http://www.w3.org/2000/svg">
  <path d="M68.478 34.288c-2.176 0-4.086-.47-5.728-1.408-1.622-.939-2.87-2.283-3.744-4.032-.875-1.75-1.312-3.797-1.312-6.144s.437-4.384 1.312-6.112c.874-1.75 2.122-3.093 3.744-4.032 1.642-.939 3.552-1.408 5.728-1.408 1.408 0 2.73.213 3.968.64a10.07 10.07 0 013.296 1.792c.277.213.469.437.576.672.106.235.16.523.16.864 0 .47-.128.864-.384 1.184-.256.32-.566.48-.928.48-.427 0-.864-.15-1.312-.448-.918-.683-1.771-1.152-2.56-1.408-.79-.277-1.664-.416-2.624-.416-2.22 0-3.904.693-5.056 2.08-1.131 1.387-1.696 3.424-1.696 6.112 0 2.71.565 4.757 1.696 6.144 1.152 1.387 2.837 2.08 5.056 2.08.917 0 1.76-.139 2.528-.416.789-.277 1.674-.747 2.656-1.408.213-.128.426-.235.64-.32.213-.085.437-.128.672-.128.362 0 .672.16.928.48.256.32.384.715.384 1.184 0 .32-.054.608-.16.864-.107.235-.3.459-.576.672-.96.79-2.06 1.397-3.296 1.824-1.238.405-2.56.608-3.968.608zM89.727 34.288c-2.198 0-4.107-.47-5.728-1.408-1.6-.939-2.837-2.283-3.712-4.032-.875-1.75-1.312-3.797-1.312-6.144s.427-4.384 1.28-6.112c.874-1.75 2.123-3.093 3.744-4.032 1.621-.939 3.53-1.408 5.728-1.408 2.197 0 4.096.47 5.696 1.408 1.621.939 2.858 2.283 3.712 4.032.875 1.728 1.312 3.765 1.312 6.112s-.437 4.395-1.312 6.144c-.875 1.75-2.123 3.093-3.744 4.032-1.6.939-3.488 1.408-5.664 1.408zm0-3.296c2.07 0 3.68-.715 4.832-2.144 1.173-1.43 1.76-3.477 1.76-6.144 0-2.667-.587-4.704-1.76-6.112-1.152-1.43-2.763-2.144-4.832-2.144-2.09 0-3.723.715-4.896 2.144-1.152 1.408-1.728 3.445-1.728 6.112 0 2.667.576 4.715 1.728 6.144 1.173 1.43 2.805 2.144 4.896 2.144zM121.032 12.336c.342-.725.907-1.088 1.696-1.088.534 0 1.014.17 1.44.512.427.341.64.768.64 1.28 0 .235-.064.501-.192.8l-8.864 19.072c-.192.405-.49.725-.896.96-.384.213-.8.32-1.248.32-.448 0-.874-.107-1.28-.32a2.213 2.213 0 01-.864-.96l-8.832-19.072c-.128-.299-.192-.555-.192-.768 0-.533.214-.97.64-1.312.448-.341.95-.512 1.504-.512.363 0 .694.096.992.288.32.17.566.437.736.8l7.36 16.352 7.36-16.352zM130.108 34.192c-.619 0-1.12-.192-1.504-.576-.363-.384-.544-.885-.544-1.504V13.328c0-.619.181-1.11.544-1.472.384-.384.885-.576 1.504-.576.64 0 1.141.192 1.504.576.384.363.576.853.576 1.472v18.784c0 .619-.192 1.12-.576 1.504-.363.384-.864.576-1.504.576zM140.044 34c-.619 0-1.109-.17-1.472-.512-.341-.341-.512-.821-.512-1.44V13.392c0-.619.171-1.099.512-1.44.363-.341.853-.512 1.472-.512h6.336c3.691 0 6.549.992 8.576 2.976 2.048 1.963 3.072 4.725 3.072 8.288 0 3.584-1.024 6.368-3.072 8.352-2.027 1.963-4.885 2.944-8.576 2.944h-6.336zm6.08-3.36c5.184 0 7.776-2.645 7.776-7.936 0-5.27-2.592-7.904-7.776-7.904h-3.936v15.84h3.936zM178.681 34.288c-1.643 0-3.2-.213-4.672-.64-1.451-.448-2.635-1.045-3.552-1.792-.491-.363-.736-.875-.736-1.536 0-.448.128-.832.384-1.152.277-.341.597-.512.96-.512.384 0 .821.15 1.312.448a9.59 9.59 0 002.88 1.44c1.002.299 2.112.448 3.328.448 1.557 0 2.752-.267 3.584-.8.832-.555 1.248-1.355 1.248-2.4 0-.81-.395-1.43-1.184-1.856-.768-.448-2.059-.875-3.872-1.28-1.878-.405-3.403-.875-4.576-1.408-1.174-.533-2.059-1.216-2.656-2.048-.598-.832-.896-1.888-.896-3.168 0-1.323.373-2.507 1.12-3.552.746-1.045 1.781-1.856 3.104-2.432 1.344-.597 2.848-.896 4.512-.896 3.05 0 5.536.81 7.456 2.432.277.235.469.47.576.704.128.213.192.49.192.832 0 .448-.139.843-.416 1.184-.256.32-.566.48-.928.48-.214 0-.416-.032-.608-.096a5.238 5.238 0 01-.704-.352c-.875-.64-1.728-1.11-2.56-1.408-.811-.32-1.814-.48-3.008-.48-1.451 0-2.603.299-3.456.896-.832.576-1.248 1.387-1.248 2.432 0 .875.373 1.547 1.12 2.016.746.47 2.016.907 3.808 1.312 1.898.427 3.434.907 4.608 1.44 1.194.512 2.101 1.173 2.72 1.984.64.81.96 1.824.96 3.04 0 1.323-.374 2.496-1.12 3.52-.726 1.003-1.76 1.792-3.104 2.368-1.323.555-2.848.832-4.576.832zM200.079 17.968c3.669 0 5.504 2.144 5.504 6.432v7.872c0 .597-.181 1.067-.544 1.408-.341.341-.821.512-1.44.512s-1.109-.17-1.472-.512c-.363-.341-.544-.81-.544-1.408V24.4c0-1.13-.235-1.952-.704-2.464-.448-.533-1.163-.8-2.144-.8-1.152 0-2.08.363-2.784 1.088-.683.725-1.024 1.696-1.024 2.912v7.136c0 .597-.181 1.067-.544 1.408-.363.341-.853.512-1.472.512s-1.109-.17-1.472-.512c-.341-.341-.512-.81-.512-1.408V13.136c0-.555.181-1.003.544-1.344.384-.341.875-.512 1.472-.512s1.077.16 1.44.48c.363.32.544.757.544 1.312v7.456a5.145 5.145 0 012.112-1.888c.896-.448 1.909-.672 3.04-.672zM211.63 34.192c-.576 0-1.056-.16-1.44-.48-.363-.341-.544-.821-.544-1.44V19.92c0-.619.181-1.088.544-1.408.384-.32.864-.48 1.44-.48s1.056.16 1.44.48c.384.32.576.79.576 1.408v12.352c0 .619-.192 1.099-.576 1.44-.384.32-.864.48-1.44.48zm0-19.008c-.726 0-1.302-.192-1.728-.576-.427-.405-.64-.928-.64-1.568s.213-1.152.64-1.536c.426-.384 1.002-.576 1.728-.576.704 0 1.269.192 1.696.576.448.384.672.896.672 1.536s-.214 1.163-.64 1.568c-.427.384-1.003.576-1.728.576zM230.155 29.712c.362 0 .65.139.864.416.234.277.352.65.352 1.12 0 .661-.395 1.216-1.184 1.664-.726.405-1.547.736-2.464.992-.918.235-1.792.352-2.624.352-2.518 0-4.512-.725-5.984-2.176-1.472-1.45-2.208-3.435-2.208-5.952 0-1.6.32-3.019.96-4.256.64-1.237 1.536-2.197 2.688-2.88 1.173-.683 2.496-1.024 3.968-1.024 1.408 0 2.634.31 3.68.928 1.045.619 1.856 1.493 2.432 2.624.576 1.13.864 2.464.864 4 0 .917-.406 1.376-1.216 1.376h-9.44c.128 1.472.544 2.56 1.248 3.264.704.683 1.728 1.024 3.072 1.024.682 0 1.28-.085 1.792-.256.533-.17 1.13-.405 1.792-.704.64-.341 1.109-.512 1.408-.512zm-5.536-8.928c-1.088 0-1.963.341-2.624 1.024-.64.683-1.024 1.664-1.152 2.944h7.232c-.043-1.301-.363-2.283-.96-2.944-.598-.683-1.43-1.024-2.496-1.024zM236.755 34.192c-.576 0-1.056-.16-1.44-.48-.363-.341-.544-.821-.544-1.44V13.168c0-.619.181-1.088.544-1.408.384-.32.864-.48 1.44-.48s1.056.16 1.44.48c.384.32.576.79.576 1.408v19.104c0 .619-.192 1.099-.576 1.44-.384.32-.864.48-1.44.48zM255.952 11.28c.597 0 1.088.17 1.472.512.384.341.576.79.576 1.344v19.136c0 .576-.182 1.035-.544 1.376-.363.341-.843.512-1.44.512-.598 0-1.078-.17-1.44-.512-.363-.341-.544-.8-.544-1.376v-.8a4.99 4.99 0 01-2.048 2.048c-.875.49-1.878.736-3.008.736-1.344 0-2.55-.341-3.616-1.024-1.046-.683-1.867-1.643-2.464-2.88-.576-1.259-.864-2.699-.864-4.32 0-1.621.288-3.04.864-4.256.597-1.216 1.418-2.155 2.464-2.816 1.045-.661 2.25-.992 3.616-.992 1.13 0 2.133.235 3.008.704A4.891 4.891 0 01254 20.656v-7.584c0-.533.17-.96.512-1.28.362-.341.842-.512 1.44-.512zm-5.92 19.872c1.28 0 2.261-.437 2.944-1.312.704-.875 1.056-2.123 1.056-3.744s-.352-2.859-1.056-3.712c-.683-.875-1.654-1.312-2.912-1.312-1.28 0-2.272.427-2.976 1.28-.704.853-1.056 2.08-1.056 3.68 0 1.621.352 2.88 1.056 3.776.704.896 1.685 1.344 2.944 1.344z" fill="#002D42"/>
  <path d="M23 4L7 8v12c0 12 16 20 16 20s16-8 16-20V8L23 4z" fill="#15A3A6"/>
  <path fill-rule="evenodd" clip-rule="evenodd" d="M17 20a6 6 0 0111.146-3.087l3.43-2.059A9.995 9.995 0 0023 10c-5.523 0-10 4.477-10 10s4.477 10 10 10a9.995 9.995 0 008.576-4.854l-3.43-2.059A6 6 0 0117 20z" fill="#fff"/>
</svg>
